X: 1
T:My Home
M:6/8
L:1/8
R:Air
K:A
ed|"A"c>Bc A>ce|"D"a>gf "A"e2 d|"A"c>Bc A>Bc|"D"d>cd "E"Bed|"A"c>Bc A>ce
|!"D"a>gf "A"e2 d|"A"c>Ac "G" B>=GB|"A"A3 A:||:e|"A"A>Bc c>Bc|"A"e>dc c2
e
|!"G"d>cd Bcd|"A"e>cA Ace|"D"f>df a2 g/f/|"A"e>dc a2d|"A"c>Ac "G" B>=GB|
"
A"A3 A:||
